!!! OTL: Berkowitz437
!!! Chapter: 1
!!! Section: IV
!!! Page: 109
!!! Mode: 
!!! Encoder: DJB
**kern
*staff1
*I"Piano
=1-
*clefG2
*k[f#]
*e:
*M6/8
8ff#\L
8aa\J
8r
8aa\L
8ddd\J
8r
=2
8r
8bb\L
8gg\J
8ccc\L
8aa\
8ff#\J
=3
8r
8gg\L
8ee\J
8aa\L
8ff#\
[8dd\J
=4
8dd\L]
8cc\
8dd\J
8dd#\
4ee\
=5
8ff#\L
8aa\J
8r
8bb\L
8ddd\J
8r
=6
8r
8cc\L
8ee\J
8ff#\L
8aa\J
8r
=7
8r
8dd\L
8ff#\J
8ee\L
8gg\
8ff#\J
=8
!!linebreak:original
8.ee\L
16dd\K
8cc#\J
4.dd\
==
*-
